X:13
T:O'Carolan's Draught
R:carolan
C:Turlough O'Carolan (1670-1738)
Z:id:hn-carolan-13
M:2/4
L:1/16
Q:1/4=70
K:G
D2 |: GABc defd | g2fe d2Bd | e2ce d2Bd | c2Bc AcBA |
GABc defd | gfed ^cbag | gfed A2^c2 |1 d3e dcBA :|2 d6 f>g||
afga bagf | e/f/gfe ed=cB | edef gfga | bagf efga |
bBbB aBaB | gBgB fBfB | edef gfed | e2ed e3f |
gfed cBAG | e2d2 d2BG | c2Bc ABGA | FGAF DEFD |
EFGE FGAF | GABG ABcA | d2g2 bagf | g2gf g2 ||

